X: 22
T: Speed the Plough
C: John Morehead
Z: John Chambers <jc:trillian.mit.edu>
O: c.1800
N: Skye, p.5
N: Caledonian Companion, p.37
N: Allan's p.3 #6
N: Harp and Claymore, p.96 (with variations by J.S.Skinner)
N: Hardie p.37
N: SFT p.7
N: Litten p.23
N: Skye  p.5
N: Kennedy V.1 p.16
N: Allan's p.3
N: Phillips p.44 from Topic 12T280
N: J.S.Skinner(?)
D: Bill Hardie on "The Fiddler's Companion" tape
M: C|
L: 1/8
K: A
E \
| "A"~A2Ac efec | eaec efec | "D"dfdB "A"cecA | "Bm"dcBA "E7"GABc || "A"~A2Ac efec |
eaec efec | "D"decd "Bm"BcAB | "E7"FAGB "A"A3 :: g | "A"a2(3bag aAce | aAgA fAeA |
"D"dfdB "A"cecA | "Bm"dcBA "E7"GABd || "A"(3cBA eA "(D)"fA"A"eA | "D"fgaf "A"ecAc | "D"decd "Bm"BcAB | "E7"FAGB "A"A3 :|

%%sep 2 1 500

